**harmony	**harte	**kern	**silbe	**rhyme	**timestamp	**phrase
*M4/4	*M4/4	*ICvox	*	*	*	*
*	*	*VRlead	*	*	*	*
*	*	*Hstimme	*	*	*	*
*G:	*G:	*G:	*	*	*	*
*	*	*M4/4	*	*	*	*
*	*	*clefG2	*	*	*	*
1r;	1r	r;	.	.	0	.
1r;	1r	r;	.	.	0.511	.
=1	=1	=1	=1	=1	=1	=1
*>Letter>C	*>Letter>C	*>Letter>C	*>Letter>C	*>Letter>C	*>Letter>C	*>Letter>C
*>Label>Intro	*>Label>Intro	*>Label>Intro	*>Label>Intro	*>Label>Intro	*>Label>Intro	*>Label>Intro
1GM	G:maj	8r	.	.	8.096	newline
.	.	8b-	My	.	.	.
.	.	8b-	ba-	.	.	.
.	.	8b-	-by	.	.	.
.	.	8b-	whis-	.	.	.
.	.	8a	-pers	.	.	.
.	.	8g	in	.	.	.
.	.	8d	my	.	.	.
=2	=2	=2	=2	=2	=2	=2
*>Letter>A	*>Letter>A	*>Letter>A	*>Letter>A	*>Letter>A	*>Letter>A	*>Letter>A
*>Label>Verse	*>Label>Verse	*>Label>Verse	*>Label>Verse	*>Label>Verse	*>Label>Verse	*>Label>Verse
1GM	G:maj	8e	ear	A	10.017	newline
.	.	8d	_	.	.	.
.	.	4r	.	.	.	.
.	.	4r	.	.	.	.
.	.	8r	.	.	.	.
.	.	[8g	Mmm	.	.	.
=3	=3	=3	=3	=3	=3	=3
1CM	C:maj	2.g]	_	.	11.937	.
.	.	8g	Sweet	.	.	.
.	.	[8e	no-	.	.	.
=4	=4	=4	=4	=4	=4	=4
1GM	G:maj	8e]	_	.	13.857	.
.	.	4.d	-thin's	.	.	.
.	.	2r	.	.	.	.
=5	=5	=5	=5	=5	=5	=5
1GM	G:maj	8r	.	.	15.777	.
.	.	8b-	He	.	.	.
.	.	8b-	knows	.	.	.
.	.	8b-	the	.	.	.
.	.	8b-	things	.	.	.
.	.	8b-	I	.	.	.
.	.	8b-	like	.	.	.
.	.	8e	to	.	.	.
=6	=6	=6	=6	=6	=6	=6
1GM	G:maj	4d	hear	A	17.697	newline
.	.	4r	.	.	.	.
.	.	4r	.	.	.	.
.	.	8r	.	.	.	.
.	.	[8g	Mmm	.	.	.
=7	=7	=7	=7	=7	=7	=7
1CM	C:maj	2.g]	_	.	19.601	.
.	.	8g	Sweet	.	.	.
.	.	[8e	no-	.	.	.
=8	=8	=8	=8	=8	=8	=8
1GM	G:maj	8e]	_	.	21.504	.
.	.	4.d	-thin's	.	.	.
.	.	2r	.	.	.	.
=9	=9	=9	=9	=9	=9	=9
1GM	G:maj	1r	.	.	23.408	.
=10	=10	=10	=10	=10	=10	=10
1CM	C:maj	8e	Things	.	25.311	newline
.	.	8g	he	.	.	.
.	.	8a	woul-	.	.	.
.	.	8g	-dn't	.	.	.
.	.	4b-	tell	B	.	.
.	.	4r	.	.	.	.
=11	=11	=11	=11	=11	=11	=11
1CM	C:maj	8r	.	.	27.21	.
.	.	8g	No-	.	.	.
.	.	8a	-bo-	.	.	.
.	.	8b-	-dy	.	.	.
.	.	4g	else	B	.	.
.	.	4r	.	.	.	.
=12	=12	=12	=12	=12	=12	=12
1GM	G:maj	4r	.	.	29.11	.
.	.	8r	Sec-	.	.	.
.	.	8r	-rets	.	.	.
.	.	8r	ba-	.	.	.
.	.	4r	-by	.	.	.
.	.	8r	I	.	.	.
=13	=13	=13	=13	=13	=13	=13
1GM	G:maj	8r	keep	.	31.009	.
.	.	8r	them	.	.	.
.	.	8r	to	.	.	.
.	.	8r	my-	.	.	.
.	.	4r	-self	B	.	.
.	.	8e	Sweet	.	.	.
.	.	[8e	no-	.	.	.
=14	=14	=14	=14	=14	=14	=14
1DM	D:maj	8e]	_	.	32.908	newline
.	.	8d	-thin's	.	.	.
.	.	4r	.	.	.	.
.	.	4r	.	.	.	.
.	.	8r	.	.	.	.
.	.	[8g	Mmm	.	.	.
=15	=15	=15	=15	=15	=15	=15
1CM	C:maj	2.g]	_	.	34.807	.
.	.	8e	Sweet	.	.	.
.	.	[8e	no-	.	.	.
=16	=16	=16	=16	=16	=16	=16
1GM	G:maj	8e]	_	.	36.707	.
.	.	4.d	-thin's	.	.	.
.	.	2r	.	.	.	.
=17	=17	=17	=17	=17	=17	=17
1GM	G:maj	8r	.	.	38.606	.
.	.	8b-	We	.	.	.
.	.	8b-	walk	.	.	.
.	.	8b-	a-	.	.	.
.	.	4b-	-long	.	.	.
.	.	8g	hand	.	.	.
.	.	8d	in	.	.	.
=18	=18	=18	=18	=18	=18	=18
*>Letter>A	*>Letter>A	*>Letter>A	*>Letter>A	*>Letter>A	*>Letter>A	*>Letter>A
*>Label>Verse	*>Label>Verse	*>Label>Verse	*>Label>Verse	*>Label>Verse	*>Label>Verse	*>Label>Verse
1GM	G:maj	4d	hand	C	40.506	newline
.	.	4r	.	.	.	.
.	.	4r	.	.	.	.
.	.	8r	.	.	.	.
.	.	[8g	Mmm	.	.	.
=19	=19	=19	=19	=19	=19	=19
1CM	C:maj	2.g]	_	.	42.434	.
.	.	8e	Sweet	.	.	.
.	.	[8e	no-	.	.	.
=20	=20	=20	=20	=20	=20	=20
1GM	G:maj	8e]	_	.	44.362	.
.	.	4.d	-thin's	.	.	.
.	.	2r	.	.	.	.
=21	=21	=21	=21	=21	=21	=21
1GM	G:maj	8r	.	.	46.291	.
.	.	4b-	Yeah,	.	.	.
.	.	8b-	we	.	.	.
.	.	4b-	both	.	.	.
.	.	8g	un-	.	.	.
.	.	8d	-der-	.	.	.
=22	=22	=22	=22	=22	=22	=22
1GM	G:maj	4d	-stand	C	48.219	newline
.	.	4r	.	.	.	.
.	.	4r	.	.	.	.
.	.	8r	.	.	.	.
.	.	[8g	Mmm	.	.	.
=23	=23	=23	=23	=23	=23	=23
1CM	C:maj	2.g]	_	.	50.116	.
.	.	8e	Sweet	.	.	.
.	.	[8e	no-	.	.	.
=24	=24	=24	=24	=24	=24	=24
1GM	G:maj	8e]	_	.	52.012	.
.	.	4.d	-thin's	.	.	.
.	.	2r	.	.	.	.
=25	=25	=25	=25	=25	=25	=25
1GM	G:maj	1r	.	.	53.908	.
=26	=26	=26	=26	=26	=26	=26
1CM	C:maj	8e	Sit-	.	55.805	newline
.	.	8g	-tin'	.	.	.
.	.	8a	in	.	.	.
.	.	[8b-	t'class-	.	.	.
.	.	8b-]	_	.	.	.
.	.	8g	-room	.	.	.
.	.	8a	trying	.	.	.
.	.	8g	to	.	.	.
=27	=27	=27	=27	=27	=27	=27
1CM	C:maj	8b-	read	.	57.724	.
.	.	4b-	my	.	.	.
.	.	8g	book	D	.	.
.	.	2r	.	.	.	.
=28	=28	=28	=28	=28	=28	=28
1GM	G:maj	8r	.	.	59.643	.
.	.	8r	My	.	.	.
.	.	8r	ba-	.	.	.
.	.	8r	by	.	.	.
.	.	8r	gave	.	.	.
.	.	8r	me	.	.	.
.	.	8r	that	.	.	.
.	.	8r	spe-	.	.	.
=29	=29	=29	=29	=29	=29	=29
1GM	G:maj	4r	-cial	.	61.562	.
.	.	4r	look	D	.	.
.	.	4r	.	.	.	.
.	.	8e	Sweet	.	.	.
.	.	[8e	no-	.	.	.
=30	=30	=30	=30	=30	=30	=30
1DM	D:maj	8e]	_	.	63.481	newline
.	.	4.d	-thin's	.	.	.
.	.	4r	.	.	.	.
.	.	8r	.	.	.	.
.	.	[8g	Mmm	.	.	.
=31	=31	=31	=31	=31	=31	=31
1CM	C:maj	2.g]	_	.	65.368	.
.	.	8e	Sweet	.	.	.
.	.	[8e	no-	.	.	.
=32	=32	=32	=32	=32	=32	=32
1GM	G:maj	8e]	_	.	67.255	.
.	.	4.d	-thin's	.	.	.
.	.	2r	.	.	.	.
=33	=33	=33	=33	=33	=33	=33
1GM	G:maj	1r	.	.	69.142	.
=34	=34	=34	=34	=34	=34	=34
*>Letter>D	*>Letter>D	*>Letter>D	*>Letter>D	*>Letter>D	*>Letter>D	*>Letter>D
*>Label>Instrumental	*>Label>Instrumental	*>Label>Instrumental	*>Label>Instrumental	*>Label>Instrumental	*>Label>Instrumental	*>Label>Instrumental
1GM	G:maj	1r	.	.	71.029	newline
=35	=35	=35	=35	=35	=35	=35
1CM	C:maj	1r	.	.	72.962	.
=36	=36	=36	=36	=36	=36	=36
1GM	G:maj	1r	.	.	74.894	.
=37	=37	=37	=37	=37	=37	=37
1GM	G:maj	1r	.	.	76.827	.
=38	=38	=38	=38	=38	=38	=38
1GM	G:maj	1r	.	.	78.759	newline
=39	=39	=39	=39	=39	=39	=39
1CM	C:maj	1r	.	.	80.663	.
=40	=40	=40	=40	=40	=40	=40
1GM	G:maj	1r	.	.	82.566	.
=41	=41	=41	=41	=41	=41	=41
1GM	G:maj	1r	.	.	84.47	.
=42	=42	=42	=42	=42	=42	=42
1CM	C:maj	1r	.	.	86.373	newline
=43	=43	=43	=43	=43	=43	=43
1CM	C:maj	1r	.	.	88.294	.
=44	=44	=44	=44	=44	=44	=44
1GM	G:maj	1r	.	.	90.214	.
=45	=45	=45	=45	=45	=45	=45
1GM	G:maj	1r	.	.	92.135	.
=46	=46	=46	=46	=46	=46	=46
1DM	D:maj	1r	.	.	94.055	newline
=47	=47	=47	=47	=47	=47	=47
1CM	C:maj	1r	.	.	95.963	.
=48	=48	=48	=48	=48	=48	=48
1GM	G:maj	1r	.	.	97.87	.
=49	=49	=49	=49	=49	=49	=49
1GM	G:maj	8r	.	.	99.778	.
.	.	8b-	Ah,	.	.	.
.	.	8b-	sit-	.	.	.
.	.	8b-	-tin	.	.	.
.	.	8b-	on	.	.	.
.	.	8b-	my	.	.	.
.	.	4b-	front	.	.	.
=50	=50	=50	=50	=50	=50	=50
*>Letter>A	*>Letter>A	*>Letter>A	*>Letter>A	*>Letter>A	*>Letter>A	*>Letter>A
*>Label>Verse	*>Label>Verse	*>Label>Verse	*>Label>Verse	*>Label>Verse	*>Label>Verse	*>Label>Verse
1GM	G:maj	4d	porch	E	101.685	newline
.	.	4r	.	.	.	.
.	.	4r	.	.	.	.
.	.	8r	.	.	.	.
.	.	[8g	Mmm	.	.	.
=51	=51	=51	=51	=51	=51	=51
1CM	C:maj	2.g]	_	.	103.639	.
.	.	8e	Sweet	.	.	.
.	.	[8e	no-	.	.	.
=52	=52	=52	=52	=52	=52	=52
1GM	G:maj	8e]	_	.	105.592	.
.	.	4.d	-thin's	.	.	.
.	.	2r	.	.	.	.
=53	=53	=53	=53	=53	=53	=53
1GM	G:maj	8r	.	.	107.546	.
.	.	8b-	Well,	.	.	.
.	.	8b-	do	.	.	.
.	.	8b-	I	.	.	.
.	.	8b-	love	.	.	.
.	.	8b-	you?	.	.	.
.	.	4b	Of	.	.	.
=54	=54	=54	=54	=54	=54	=54
1GM	G:maj	4d	course	E	109.5	newline
.	.	4r	.	.	.	.
.	.	4r	.	.	.	.
.	.	8r	.	.	.	.
.	.	[8g	Mmm	.	.	.
=55	=55	=55	=55	=55	=55	=55
1CM	C:maj	2.g]	_	.	111.421	.
.	.	8e	Sweet	.	.	.
.	.	[8e	no-	.	.	.
=56	=56	=56	=56	=56	=56	=56
1GM	G:maj	8e]	_	.	113.341	.
.	.	4.d	-thin's	.	.	.
.	.	2r	.	.	.	.
=57	=57	=57	=57	=57	=57	=57
1GM	G:maj	1r	.	.	115.262	.
=58	=58	=58	=58	=58	=58	=58
1CM	C:maj	8e	Ma-	.	117.183	newline
.	.	8g	-ma	.	.	.
.	.	8a	turned	.	.	.
.	.	[8b-	on	.	.	.
.	.	4b-]	_	.	.	.
.	.	8r	.	.	.	.
.	.	8g	the	.	.	.
=59	=59	=59	=59	=59	=59	=59
1CM	C:maj	8b-	front	.	119.111	.
.	.	4b-	porch	.	.	.
.	.	8g	light	F	.	.
.	.	4r	Said	.	.	.
.	.	4r	.	.	.	.
=60	=60	=60	=60	=60	=60	=60
1GM	G:maj	4r	.	.	121.039	.
.	.	8r	come	.	.	.
.	.	8r	here	.	.	.
.	.	8r	dar-	.	.	.
.	.	4r	-ling	.	.	.
.	.	8r	that's	.	.	.
=61	=61	=61	=61	=61	=61	=61
1GM	G:maj	8r	en-	.	122.967	.
.	.	8r	-ough	.	.	.
.	.	8r	for	.	.	.
.	.	8r	to-	.	.	.
.	.	4r	-night	F	.	.
.	.	8e	Sweet	.	.	.
.	.	[8e	no-	.	.	.
=62	=62	=62	=62	=62	=62	=62
1DM	D:maj	8e]	_	.	124.895	newline
.	.	4.d	-thin's	.	.	.
.	.	4r	.	.	.	.
.	.	8r	.	.	.	.
.	.	[8g	Mmm	.	.	.
=63	=63	=63	=63	=63	=63	=63
1CM	C:maj	2.g]	_	.	126.815	.
.	.	8e	Sweet	.	.	.
.	.	[8e	no-	.	.	.
=64	=64	=64	=64	=64	=64	=64
1GM	G:maj	8e]	_	.	128.735	.
.	.	4.d	-thin's	.	.	.
.	.	2r	.	.	.	.
=65	=65	=65	=65	=65	=65	=65
1GM	G:maj	2r	.	.	130.655	.
.	.	4r	.	.	.	.
.	.	8e	Sweet	.	.	.
.	.	[8e	no-	.	.	.
=66	=66	=66	=66	=66	=66	=66
1DM	D:maj	8e]	_	.	132.574	newline
.	.	4.d	-thin's	.	.	.
.	.	4r	.	.	.	.
.	.	8r	.	.	.	.
.	.	[8g	Mmm	.	.	.
=67	=67	=67	=67	=67	=67	=67
1CM	C:maj	2.g]	_	.	134.462	.
.	.	8e	Sweet	.	.	.
.	.	[8e	no-	.	.	.
=68	=68	=68	=68	=68	=68	=68
1GM	G:maj	8e]	_	.	136.35	.
.	.	4.d	-thin's	.	.	.
.	.	2r	.	.	.	.
=69	=69	=69	=69	=69	=69	=69
*M2/4	*M2/4	*M2/4	*	*	*M2/4	*M2/4
2GM	G:maj	4r	.	.	138.238	.
.	.	4r	.	.	.	.
=70	=70	=70	=70	=70	=70	=70
*M4/4	*M4/4	*M4/4	*	*	*M4/4	*M4/4
1N	N	1r	.	.	139.182	newline
=71	=71	=71	=71	=71	=71	=71
1GM	G:maj	1r	.	.	140.992	.
1r;	1r	r;	.	.	142.803	.
1r;	1r	r;	.	.	145.763	.
*-	*-	*-	*-	*-	*-	*-
!!!BillboardChartDate: 1960/01/04
!!!BillboardPeak: 4
!!!BillboardWeeksOnChart: 24
!!!COC: Brenda Lee
!!!ENC: Nathaniel Condit-Schultz
!!!EST: Awating manual error checking and editing.
!!!OTL: Sweet Nothin's
!!!RDF**chordsym: original McGill chord annotation + (implied pitch class set, with bass pitch in first position)
!!!RDF**harmony: **recip + pitch class of root + harmonic quality
!!!RDF**leadinstrument: original McGill primary instrumentation annotation
!!!RDF**phrase: newline = linebreak in original McGill transcription
!!!RDF**timestamp: McGill audio timestamp in seconds
!!!RDT: 2017/01/12/
!!!SampleActualRank: 79
!!!SampleID#: 0162
!!!SampleTargetRank: 77
!!!MBID: 0e369953-08ed-435b-b4ed-ff55ac267069